X:1
T:Title
%%score ( 1 2 ) { ( 3 5 ) | ( 4 6 ) }
L:1/8
Q:1/4=100
M:4/4
K:A
V:1 treble nm="Grand Piano, Soprano"
V:2 treble 
V:3 bass nm="Choir Pad, Be Strong in the Lord"
V:5 bass 
V:4 bass 
V:6 bass 
V:1
 [CE] [CA]2 [CA]- [CA]/[CA]/ [EG]2 E- | E/E/ [Ed]2 [Ed]- [Ed]/[Ed]/ [Ed]3 | %2
w: By~W.~W.~Clark * * * * * *||
 [FA] [FA]2 [FB]- [FB]/[Fc]/ [Fd]2 [EG]- | [EG]/[EG]/ [EA]2 [EB]- [EB]/[EB]/ [Ec]3 | %4
w: ||
 [CE] [CA]2 [CA]- [CA]/[CA]/ [EG]2 E- | E/E/ [Ed]2 [Ed]- [Ed]/[Ed]/ [Ec]3 | z8 | z8 | z8 | z8 | %10
w: ||||||
 z8 | z8 | z8 | z8 | z ^d3- d2- d/ z/ z | z e3- e/ z/ z z2 | [CE] [CA]2 [CA]- [CA]/[CA]/ [EG]2 E- | %17
w: |||||||
 E/E/ [Ed]2 [Ed]- [Ed]/[Ed]/ [Ed]3 | [FA] [FA]2 [FB]- [FB]/[Fc]/ [Fd]2 [EG]- | %19
w: ||
 [EG]/[EG]/ [EA]2 [EB]- [EB]/[EB]/ [Ec]3 | [CE] [CA]2 [CA]- [CA]/[CA]/ [EG]2 E- | %21
w: ||
 E/E/ [Ed]2 [Ed]- [Ed]/[Ed]/ [Ec]3 | [Ec] [Ee]2 [Ed]- [Ed]/[EB]/ [EA]2 [EG]- | %23
w: ||
 [EG]/[EG]/ [Ec]2 [DB]- [DB]/[DE]/ .[CA]3 |] %24
w: |
V:2
 x8 | x8 | x8 | x8 | x8 | x8 | [Ec] [Ee]2 [Ed]- [Ed]/[EB]/ [EA]2 [EG]- | %7
 [EG]/[EG]/ [Ec]2 [DB]- [DB]/[DE]/ [CA]2 [EG]- | [EG]/[FA]/ [GB]3- [GB]2- [GB]/ z/ [GB]- | %9
 [GB]/[Ge]/ [A^d]3- [Ad]2- [Ad]/ z/ [^DF]- | [DF]/[EG]/ [FA]3- [FA]2- [FA]/ z/ [EG]- | %11
 [EG]/[Ac]/ [GB]3- [GB]2- [GB]/ z/ [GB]- | [GB] [Ge]3- [Ge]2- [Ge]/ z/ [B^e]- | %13
 [Be]/[B^e]/ [Af]3- [Af] [Ac]2 [A=e]- | [Ae] A2 A- A/A/ A2 [Ac]- | [Ac]/[A^d]/ G2 A- A/A/ .[G=d]3 | %16
 x8 | x8 | x8 | x8 | x8 | x8 | x8 | x8 |] %24
V:3
 A, A,2 A,- A,/A,/ B,2 G,- | G,/G,/G, A,B,- B,/G,/ A,3 | C C2 B,- B,/^A,/ B,2 B,- | %3
 B,/B,/ A,2 G,- G,/G,/ A,3 | A, A,2 A,- A,/A,/ B,2 G,- | G,/G,/G, A,B,- B,/G,/ A,3 | %6
 A, G,2 G,- G,/G,/ C2 B,- | B,/B,/ A,2 G,- G,/G,/ A,2 B,- | %8
 B,/B,/[K:treble]E- E/E/E/E/- E/E/E .E2 | %9
 (7:8:7z/[K:bass] B,/4B,3/4B,/B, z/4 B,/4- B,/ B,/ B,2 B, | %10
 B,/B,/[K:treble]^D- D/D/D/D/- D/D/D .D2 | z2 z .E z4 | z8[K:bass][K:treble] | z8 | z8[K:bass] | %15
 z8[K:treble] | A,[K:bass] A,2 A,- A,/A,/ B,2 G,- | G,/G,/G, A,B,- B,/G,/ A,3 | %18
 C C2 B,- B,/^A,/ B,2 B,- | B,/B,/ A,2 G,- G,/G,/ A,3 | A, A,2 A,- A,/A,/ B,2 G,- | %21
 G,/G,/G, A,B,- B,/G,/ A,3 | A, G,2 G,- G,/G,/ C2 B,- | B,/B,/ A,2 G,- G,/G,/ .A,3 |] %24
V:4
 A,, A,,2 A,,- A,,/A,,/ E,2 E,- | E,/E,/E, F,G,- G,<.E, z2 | F, F,2 D,- D,/C,/ B,,2 D,- | %3
 D,/D,/ C,2 E,- E,<.E, z2 | A,, A,,2 A,,- A,,/A,,/ E,2 E,- | E,/E,/E, F,G,- G,<.E, z2 | %6
 z E,2 E,- E,/E,/ E,2 E,- | E,/E,/ D,2 E,- E,/E,/ A,,2 E,- | %8
 E,/E,/E,- E,/E,/E,/E,/- E,/E,/E, .E,2 | z/ .E,3/2 z2 z2 z B,,- | %10
 B,,/B,,/B,,- B,,/B,,/B,,/B,,/- B,,/B,,/B,, .B,,2 | %11
 (7:8:7z/ B,,/4E,3/4E,/E, z/4 E,/4- E,/E,/ E,2 E,- | E, E,2 E,- E,/E,/E, E,E,- | %13
 E, A,2 A,- A,/A,/ A,2 A,- | A, z z2 z2 z B,,- | B,,/B,,/ E,2 E,- E,/E,/ .E,3 | %16
 A,, A,,2 A,,- A,,/A,,/ E,2 E,- | E,/E,/E, F,G,- G,<.E, z2 | F, F,2 D,- D,/C,/ B,,2 D,- | %19
 D,/D,/ C,2 E,- E,<.E, z2 | A,, A,,2 A,,- A,,/A,,/ E,2 E,- | E,/E,/E, F,G,- G,<.E, z2 | %22
 z E,2 E,- E,/E,/ E,2 E,- | E,/E,/ D,2 E,- E,/E,/ .A,,3 |] %24
V:5
 x8 | x8 | x8 | x8 | x8 | x8 | x8 | x8 | x[K:treble] x7 | z2[K:bass] z .B, z4 | x[K:treble] x7 | %11
 (7:8:7z/ ^D/4E3/4E/E z/4 E/4- E/E/ E2 E- | E[K:bass] B,2 B,- B,/B,/B, B,[K:treble]D- | %13
 D C2 C- C/C/ E2 C- | C[K:bass] B,2 B,- B,/B,/ B,2 B,- | B,/B,/ B,2[K:treble] C- C/C/ .B,3 | %16
 x[K:bass] x7 | x8 | x8 | x8 | x8 | x8 | x8 | x8 |] %24
V:6
 x8 | x8 | x8 | x8 | x8 | x8 | x8 | x8 | x8 | x8 | x8 | z2 z .E, z4 | x8 | x8 | x8 | x8 | x8 | x8 | %18
 x8 | x8 | x8 | x8 | x8 | x8 |] %24

